X:207
T:I Ain't Broke, But I'm Badly Bent
C:David Grisman - The Rounder Album
N:mandolin: David Grisman - Transcribed by Philippe Colleu
R:bluegrass
L:1/8
Q:1/4=200
M:4/4
K:C
"109 bpm"z4 ze (3gez | (3"C"c'ze (3gz_b z2 (3^dzg | (3zzd (3cdc (3Gzc (3zzG | 
(3"F"FzD (3FzG (3zz{G}A (3zzz | (3EzG (3zzz (3CzE (3zzz | (3"C7"^Dzz (3Dzz (3DzG (3Dz=D | 
(3EzG E2 (3CzE (3zzG, | (3_B,zD (3EzG (3zzG (3zzG | (3zzG (3EzD {G}A2 {D}EF | 
"F"z2 (3GzE (3FzA z2 | (3czA (3czd (3zz^d (3zze | (3"C"gze (3azz c'2 a2 | (3gza z2 (3^dzg (3zz=d | 
(3"G"BdB (3GzB (3zzG (3EzD | (3GED (3B,zE (3DzB, (3A,zB, | "C"C2 (3DEF G2 (3D^DE | 
c8 | 


